outputs/icons/social/point_heart_round.svg

<svg xmlns="http://www.w3.org/2000/svg" width="1200" height="1200" fill="none"><path fill="#000" fill-rule="evenodd" d="M100 600c0-276 223.5-500 499.5-500C876 100 1100 324 1100 600s-224 500-500.5 500c-276 0-499.5-224-499.5-500m463.75 225.75 36.25 33L636.25 826l.985-.895C765.435 708.605 850 631.76 850 537.5c0-77-60.5-137.5-137.5-137.5-43.5 0-85.25 20.25-112.5 52.25-27.25-32-69-52.25-112.5-52.25-77 0-137.5 60.5-137.5 137.5 0 94.42 84.861 171.375 213.435 287.965z"/></svg>

<svg width="1200" height="1200" viewBox="0 0 1200 1200" fill="none" xmlns="http://www.w3.org/2000/svg"><path fill-rule="evenodd" d="M100 600C100 324 323.5 100 599.5 100C876 100 1100 324 1100 600C1100 876 876 1100 599.5 1100C323.5 1100 100 876 100 600ZM563.75 825.75L600 858.75L636.25 826L637.235 825.105C765.435 708.605 850 631.76 850 537.5C850 460.5 789.5 400 712.5 400C669 400 627.25 420.25 600 452.25C572.75 420.25 531 400 487.5 400C410.5 400 350 460.5 350 537.5C350 631.92 434.861 708.875 563.435 825.465L563.75 825.75Z" fill="#1D1E23"/></svg>
